Adwaita++-Light/panel/16/ubuntuone-client-idle.svg

<svg height="16" width="16" xmlns="http://www.w3.org/2000/svg">
  <path d="m6 3a4 4 0 0 0 -4 4 4 4 0 0 0 .0058594.171875 3 3 0 0 0 -2.0058594 2.828125 3 3 0 0 0 3 3h10a3 3 0 0 0 3-3 3 3 0 0 0 -2.009766-2.828125 3 3 0 0 0 .009766-.171875 3 3 0 0 0 -3-3 3 3 0 0 0 -1.8007812.6054688 4 4 0 0 0 -3.1992188-1.6054688z" fill="#444"/>
</svg>

<svg xmlns="http://www.w3.org/2000/svg" width="16" height="16" version="1.1">
 <defs>
  <style id="current-color-scheme" type="text/css">
   .ColorScheme-Text { color:#444444; } .ColorScheme-Highlight { color:#4285f4; }
  </style>
 </defs>
 <path style="fill:currentColor" class="ColorScheme-Text" d="M 6,3 A 4,4 0 0 0 2,7 4,4 0 0 0 2.0058594,7.171875 3,3 0 0 0 0,10 3,3 0 0 0 3,13 l 10,0 A 3,3 0 0 0 16,10 3,3 0 0 0 13.990234,7.171875 3,3 0 0 0 14,7 3,3 0 0 0 11,4 3,3 0 0 0 9.1992188,4.6054688 4,4 0 0 0 6,3 Z"/>
</svg>
